outputs/icons/navigation/full_screen_sharp.svg

<svg xmlns="http://www.w3.org/2000/svg" width="1200" height="1200" fill="none"><g clip-path="url(#a)"><path fill="#000" d="M350 700H250v250h250V850H350zM250 500h100V350h150V250H250zm600 350H700v100h250V700H850zM700 250v100h150v150h100V250z"/></g><defs><clipPath id="a"><path fill="#fff" d="M0 0h1200v1200H0z"/></clipPath></defs></svg>

<svg width="1200" height="1200" viewBox="0 0 1200 1200" fill="none" xmlns="http://www.w3.org/2000/svg"><g clip-path="url(#clip0_117_959)"><path d="M350 700H250V950H500V850H350V700ZM250 500H350V350H500V250H250V500ZM850 850H700V950H950V700H850V850ZM700 250V350H850V500H950V250H700Z" fill="black"/></g><defs><clipPath id="clip0_117_959"><path width="24" fill="white" d="M0 0H1200V1200H0V0z"/></clipPath></defs></svg>
